X: 67
T: No_159_I_Sat_Under_Santa_Rita_Mountains.krn
N: Derived from No_159_I_Sat_Under_Santa_Rita_Mountains.krn
%%abc-version 2.0
%%abcx-abcm2ps-target-version 5.9.1 (29 Sep 2008)
%%abc-creator hum2abc beta
%%abcx-conversion-date 2019/03/15 08:37:56
%%humdrum-veritas 630776980
%%humdrum-veritas-data 3755669883
%%linebreak <none>
%%barnumbers 0
L: 1/4
M: 3/4
K: Db clef=bass
[K:clef=bass][M:3/4]F2E | 
D2B, ||  
[M:2/4]A,A,/ z/ | 
FF3//D// | 
DF ||  
[M:3/4]EDA, | 
B,3 ||  
[M:2/4]F,B,/B,/ ||  
[M:3/4]B,A,F,/F,/ | 
E,E,z3// A,// ||  
[M:2/4]A,B, | 
B,A,//F,3// ||  
[M:3/4]A,3 | 
A,/A,/A,E, ||  
[M:2/4]B,/B,/B, | 
A,F, | 
B,/B,/B, | 
A,B,/B,/ ||  
[M:3/4]B,A,F,/E,/ ||  
[M:2/4]A,2 | 
A,z |]  



